X: 115
T: Dieduan qiao
%%abc-version 2.0
%%abcx-abcm2ps-target-version 5.9.1 (29 Sep 2008)
%%abc-creator hum2abc beta
%%abcx-conversion-date 2013/10/02 07:52:29
%%abc-edited-by Helmut Schaffrath
%%humdrum-veritas 2397433386
%%humdrum-veritas-data 815733942
%%continueall 1
%%barnumbers 0
L: 1/8
M: 2/4
K: G
A2A2 [I:setbarnb 1]| 
B A G E | 
A3B | 
A3z | 
d2e d | 
c B d B | 
A2A B | 
A GE2 | 
G2G2 | 
A G A B | 
G3A | 
G2z2 | 
e g e d | 
c2d2 | 
e g e d | 
c B d B | 
A2A B | 
A GE2 | 
G2G2 | 
E G E G | 
A2z2 | 
B d B A | 
G AB2 | 
d B A G | 
E3G | 
E DB,2 | 
D2D2 | 
E D E G | 
D3E | 
D4 |]  



